X: 1
T:Saraband [1], The
M:6/8
L:1/8
K:G
afa ggg|fdf e2A|cde fga|gaf g2f|
afa ggg|fdf e2A|cde fga|gaf g2f||
ccc c>BA|agf e2A|cde fga|g a/g/f/g e2 d|
ccc c>BA|agf e2A|cde fga|g a/g/f/g e2d||

